src/assets/img/icons/payment_system/mastercard_bright.svg

<svg width="42" height="32" viewBox="0 0 42 32" fill="none" xmlns="http://www.w3.org/2000/svg">
<path fill-rule="evenodd" clip-rule="evenodd" d="M19.8539 2.12864C17.8294 0.780503 15.4143 0 12.786 0C5.7182 0 0 5.71186 0 12.7719C0 19.8319 5.7182 25.5437 12.786 25.5437C15.3788 25.5437 17.8294 24.7632 19.8539 23.4151C19.8006 23.3796 19.7473 23.3353 19.694 23.2909C19.6408 23.2466 19.5875 23.2022 19.5342 23.1667C16.5153 20.5414 14.8105 16.7808 14.8105 12.7719C14.8105 8.76292 16.5153 5.00232 19.5342 2.37699C19.5875 2.34151 19.6408 2.29716 19.694 2.25282C19.7473 2.20847 19.8006 2.16412 19.8539 2.12864ZM41.3415 12.7719C41.3415 5.74734 35.6233 0 28.5555 0C25.9272 0 23.5121 0.780503 21.4876 2.12864C21.5409 2.16412 21.5942 2.20847 21.6475 2.25282C21.7007 2.29716 21.754 2.34151 21.8073 2.37699C24.8262 5.00232 26.531 8.76292 26.531 12.7719C26.531 16.7453 24.7907 20.5414 21.8073 23.1667C21.754 23.2022 21.7007 23.2466 21.6475 23.2909C21.5942 23.3353 21.5409 23.3796 21.4876 23.4151C23.5121 24.7632 25.9628 25.5437 28.5555 25.5437C35.6233 25.5437 41.3415 19.8319 41.3415 12.7719ZM21.0084 3.02435C20.8973 2.9296 20.7923 2.84011 20.6708 2.76724C20.582 2.8382 20.502 2.90029 20.4221 2.96238C20.3422 3.02446 20.2623 3.08654 20.1735 3.15749C17.4743 5.499 15.7694 8.94031 15.7694 12.8073C15.7694 16.6389 17.4743 20.1157 20.1735 22.4572C20.3156 22.5991 20.4932 22.741 20.6708 22.8475C20.7595 22.7765 20.8394 22.7144 20.9193 22.6523C20.9993 22.5903 21.0792 22.5282 21.168 22.4572C23.8673 20.1157 25.5721 16.6744 25.5721 12.8073C25.5721 8.97578 23.8673 5.499 21.168 3.15749C21.112 3.11274 21.0595 3.06799 21.0084 3.02435ZM7.26919 29.811V31.9301H6.44584V30.0579C6.44584 29.4901 6.19759 29.1733 5.7011 29.1733C5.24184 29.1733 4.88602 29.4572 4.88602 30.0579V31.9301H4.14127V30.0579C4.14127 29.4901 3.89302 29.1733 3.39653 29.1733C2.90003 29.1733 2.58145 29.4572 2.58145 30.0579V31.9301H1.83671V28.5396H2.58145V28.9634C2.8628 28.5767 3.21862 28.4697 3.57444 28.4697C4.10817 28.4697 4.46399 28.6836 4.71224 29.0704C5.03083 28.6096 5.49422 28.4697 5.92038 28.4697C6.7727 28.4697 7.26919 29.0005 7.26919 29.811ZM17.1081 28.5396H18.3121V29.2103H17.1039V30.7286C17.1039 31.0784 17.2446 31.2923 17.6004 31.2923C17.7783 31.2923 18.0266 31.2553 18.2417 31.1154L18.4569 31.7531C18.2086 31.893 17.8528 32 17.5342 32C16.6819 32 16.3633 31.5433 16.3633 30.7656V29.2103H15.6889V28.5396H16.3633V27.5151H17.1081V28.5396ZM23.7487 28.9593C23.9266 28.6795 24.2121 28.4656 24.6383 28.4656C24.7789 28.4656 24.9899 28.4656 25.1389 28.4944L24.9237 29.2021C24.7789 29.1692 24.601 29.1321 24.4603 29.1321C23.997 29.1321 23.7487 29.4531 23.7487 30.0168V31.926H23.004V28.5355H23.7487V28.9593ZM13.6988 28.4656C14.2325 28.4656 14.729 28.5726 15.0849 28.8194L14.7704 29.4202C14.5553 29.3132 14.1291 29.1363 13.7029 29.1363C13.3099 29.1363 13.0616 29.2761 13.0616 29.523C13.0616 29.7329 13.3099 29.8028 13.6285 29.8399L13.9843 29.8769C14.6918 29.9839 15.1552 30.3007 15.1552 30.9014C15.1552 31.5351 14.5842 31.9959 13.5912 31.9959C13.0575 31.9959 12.5238 31.856 12.1348 31.5721L12.4907 31.0084C12.7389 31.1853 13.132 31.3623 13.6285 31.3623C14.125 31.3623 14.4105 31.1853 14.4105 30.9385C14.4105 30.7615 14.1953 30.6545 13.8064 30.5846L13.4506 30.5476C12.7058 30.4447 12.2797 30.1238 12.2797 29.5601C12.2797 28.8894 12.8465 28.4656 13.6988 28.4656ZM34.0096 28.9593C34.1875 28.6795 34.473 28.4656 34.8992 28.4656C35.044 28.4656 35.255 28.4656 35.3998 28.5026L35.1847 29.2021C35.0398 29.1692 34.8619 29.1321 34.7213 29.1321C34.2579 29.1321 34.0096 29.4531 34.0096 30.0168V31.926H33.2649V28.5355H34.0096V28.9593ZM27.1952 32C26.0946 32 25.383 31.2594 25.383 30.2349C25.383 29.2103 26.0946 28.4656 27.1952 28.4697C27.6917 28.4697 28.0475 28.5725 28.4034 28.8565L28.0475 29.4572C27.762 29.2473 27.4766 29.1404 27.158 29.1404C26.5539 29.1733 26.1277 29.5971 26.1277 30.2349C26.1277 30.9055 26.5539 31.3293 27.158 31.3293C27.4807 31.3293 27.762 31.2265 28.0475 31.0125L28.4034 31.6132C28.0475 31.893 27.6917 32 27.1952 32ZM32.2719 28.5396V30.2349V31.9301H31.5271V31.5063C31.312 31.8231 30.9562 32 30.4597 32C29.4998 32 28.755 31.2594 28.755 30.2349C28.755 29.2103 29.4998 28.4697 30.4597 28.4697C30.9231 28.4697 31.2789 28.6466 31.5271 28.9634V28.5396H32.2719ZM30.5672 29.1404C29.9259 29.1404 29.537 29.6341 29.537 30.2349C29.537 30.8315 29.9301 31.2923 30.5672 31.3293C31.1713 31.3293 31.5975 30.8356 31.5975 30.2349C31.5975 29.6012 31.1713 29.1404 30.5672 29.1404ZM18.9203 30.2307C18.9203 29.1733 19.6319 28.4656 20.6249 28.4656C21.5807 28.4656 22.222 29.1733 22.1889 30.2637V30.5476H19.6692C19.7767 31.1442 20.236 31.3581 20.6994 31.3581C21.0511 31.3581 21.4069 31.2182 21.6924 31.0043L22.0482 31.5351C21.6552 31.856 21.1587 31.9959 20.6622 31.9959C19.6319 31.9959 18.9203 31.2923 18.9203 30.2307ZM21.4772 29.9139C21.4069 29.3872 21.0883 29.1033 20.6249 29.1033C20.0912 29.1033 19.7726 29.4572 19.7023 29.9139H21.4772ZM39.1277 27.1983V30.2349V31.9301H38.3829V31.5063C38.1678 31.8231 37.8119 32 37.3154 32C36.3556 32 35.6108 31.2594 35.6108 30.2349C35.6108 29.2103 36.3556 28.4697 37.3154 28.4697C37.7788 28.4697 38.1347 28.6466 38.3829 28.9634V27.1983H39.1277ZM37.423 29.1404C36.7817 29.1404 36.3928 29.6341 36.3928 30.2349C36.3928 30.8315 36.7817 31.2923 37.423 31.3293C38.0271 31.3293 38.4532 30.8356 38.4532 30.2349C38.4532 29.6012 38.0271 29.1404 37.423 29.1404ZM11.4604 28.5396V30.2349V31.9301H10.7157V31.5063C10.5006 31.8231 10.1447 32 9.64824 32C8.68834 32 7.9436 31.2594 7.9436 30.2349C7.9436 29.2103 8.68834 28.4697 9.64824 28.4697C10.1116 28.4697 10.4675 28.6466 10.7157 28.9634V28.5396H11.4604ZM9.72271 29.1404C9.0814 29.1404 8.69248 29.6341 8.69248 30.2349C8.69248 30.8315 9.0814 31.2923 9.72271 31.3293C10.3268 31.3293 10.7529 30.8356 10.7529 30.2349C10.7529 29.6012 10.3268 29.1404 9.72271 29.1404Z" fill="#919EAB"/>
</svg>

<svg width="42" height="32" fill="none" xmlns="http://www.w3.org/2000/svg"><path fill-rule="evenodd" clip-rule="evenodd" d="M19.854 2.129A12.668 12.668 0 0 0 12.786 0C5.718 0 0 5.712 0 12.772c0 7.06 5.718 12.772 12.786 12.772 2.593 0 5.043-.78 7.068-2.129a1.945 1.945 0 0 1-.16-.124c-.053-.044-.107-.089-.16-.124a13.708 13.708 0 0 1-4.723-10.395c0-4.01 1.704-7.77 4.723-10.395.053-.035.107-.08.16-.124.053-.045.107-.089.16-.124Zm21.488 10.643C41.342 5.747 35.623 0 28.555 0c-2.628 0-5.043.78-7.067 2.129.053.035.106.08.16.124.053.044.106.089.16.124a13.708 13.708 0 0 1 4.723 10.395c0 3.973-1.74 7.77-4.724 10.395-.053.035-.106.08-.16.124a1.945 1.945 0 0 1-.16.124 12.755 12.755 0 0 0 7.069 2.129c7.067 0 12.786-5.712 12.786-12.772ZM21.008 3.024a2.536 2.536 0 0 0-.337-.257c-.089.071-.169.133-.249.195l-.248.195a12.717 12.717 0 0 0-4.405 9.65c0 3.832 1.705 7.309 4.405 9.65.142.142.32.284.497.39l.248-.195c.08-.062.16-.124.249-.195a12.717 12.717 0 0 0 4.404-9.65c0-3.831-1.705-7.308-4.404-9.65a6.296 6.296 0 0 1-.16-.133ZM7.27 29.811v2.12h-.823v-1.873c0-.568-.248-.885-.745-.885-.46 0-.815.284-.815.885v1.872h-.745v-1.872c0-.568-.248-.885-.744-.885-.497 0-.816.284-.816.885v1.872h-.744v-3.39h.744v.423c.282-.386.638-.493.993-.493.534 0 .89.214 1.138.6.319-.46.782-.6 1.208-.6.853 0 1.35.53 1.35 1.341Zm9.84-1.271h1.203v.67h-1.208v1.519c0 .35.14.563.496.563.178 0 .427-.037.642-.177l.215.638c-.248.14-.604.247-.923.247-.852 0-1.17-.457-1.17-1.234V29.21h-.675v-.67h.674v-1.025h.745v1.025Zm6.64.42a1.01 1.01 0 0 1 .89-.494c.14 0 .35 0 .5.028l-.215.708a2.3 2.3 0 0 0-.464-.07c-.463 0-.711.321-.711.885v1.909h-.745v-3.39h.745v.423Zm-10.05-.494c.534 0 1.03.107 1.386.353l-.315.601c-.215-.107-.64-.284-1.067-.284-.393 0-.641.14-.641.387 0 .21.248.28.567.317l.355.037c.708.107 1.171.424 1.171 1.024 0 .634-.57 1.095-1.564 1.095-.534 0-1.067-.14-1.456-.424l.356-.564a1.97 1.97 0 0 0 1.138.354c.496 0 .782-.177.782-.423 0-.177-.216-.285-.605-.354l-.355-.037c-.745-.103-1.171-.424-1.171-.988 0-.67.567-1.094 1.419-1.094Zm20.31.493a1.01 1.01 0 0 1 .89-.493c.145 0 .356 0 .5.037l-.214.7a2.301 2.301 0 0 0-.464-.07c-.463 0-.711.32-.711.884v1.909h-.745v-3.39h.745v.423ZM27.196 32c-1.1 0-1.812-.74-1.812-1.765s.712-1.77 1.812-1.765c.497 0 .852.103 1.208.387l-.355.6c-.286-.21-.571-.317-.89-.317-.604.033-1.03.457-1.03 1.095 0 .67.426 1.094 1.03 1.094.323 0 .604-.102.89-.317l.355.601c-.355.28-.711.387-1.208.387Zm5.077-3.46v3.39h-.745v-.424c-.215.317-.57.494-1.067.494-.96 0-1.705-.74-1.705-1.765s.745-1.765 1.705-1.765c.463 0 .819.177 1.067.493v-.423h.745Zm-1.705.6c-.641 0-1.03.494-1.03 1.095 0 .596.393 1.057 1.03 1.094.604 0 1.03-.493 1.03-1.094 0-.634-.426-1.095-1.03-1.095ZM18.92 30.23c0-1.057.712-1.764 1.705-1.764.956 0 1.597.707 1.564 1.798v.284h-2.52c.108.596.567.81 1.03.81.352 0 .708-.14.993-.354l.356.531c-.393.321-.89.46-1.386.46-1.03 0-1.742-.703-1.742-1.764Zm2.557-.316c-.07-.527-.389-.81-.852-.81-.534 0-.852.353-.923.81h1.775Zm17.65-2.716v4.732h-.744v-.424c-.215.317-.571.494-1.068.494-.96 0-1.704-.74-1.704-1.765s.745-1.765 1.704-1.765c.464 0 .82.177 1.068.493v-1.765h.745Zm-1.704 1.942c-.641 0-1.03.494-1.03 1.095 0 .596.389 1.057 1.03 1.094.604 0 1.03-.493 1.03-1.094 0-.634-.426-1.095-1.03-1.095Zm-25.963-.6v3.39h-.744v-.424c-.215.317-.571.494-1.068.494-.96 0-1.704-.74-1.704-1.765s.744-1.765 1.704-1.765c.464 0 .82.177 1.068.493v-.423h.744Zm-1.737.6c-.642 0-1.03.494-1.03 1.095 0 .596.388 1.057 1.03 1.094.604 0 1.03-.493 1.03-1.094 0-.634-.426-1.095-1.03-1.095Z" fill="#919EAB"/></svg>
